static/img/sponsors/dark/storyblok-logo.svg

<svg width="1006" height="215" viewBox="0 0 1006 215" fill="none" xmlns="http://www.w3.org/2000/svg">
<path d="M294.84 148.79C287.54 148.79 280.45 147.75 273.36 145.46C266.707 143.311 260.591 139.765 255.42 135.06L264.8 119.26C269.581 122.544 274.684 125.332 280.03 127.58C284.83 129.66 289.63 130.49 294.22 130.49C297.56 130.49 300.27 129.87 302.15 128.62C304.02 127.58 304.85 125.72 304.85 123.42C304.85 121.35 303.82 119.27 301.31 118.02C297.391 116.147 293.261 114.75 289.01 113.86L274.41 109.08C270.44 107.42 267.31 105.75 264.81 103.88C262.462 102.337 260.584 100.178 259.38 97.6402C258.245 95.0184 257.676 92.1868 257.71 89.3302C257.651 85.2866 258.501 81.2813 260.197 77.6102C261.893 73.9391 264.392 70.696 267.51 68.1202C270.44 65.6202 274.19 63.7502 278.36 62.3002C282.732 60.8536 287.315 60.1505 291.92 60.2202C298.39 60.2202 304.44 61.0502 310.07 62.7202C316.086 64.776 321.624 68.0279 326.35 72.2802L316.12 87.8802C312.082 84.9992 307.747 82.5587 303.19 80.6002C299.633 79.0619 295.795 78.2787 291.92 78.3002C289.22 78.3002 286.71 78.7202 284.83 79.9702C282.75 81.0102 281.91 82.8802 281.91 85.3702C281.861 86.4767 282.129 87.5742 282.684 88.5329C283.239 89.4916 284.056 90.2714 285.04 90.7802C287.13 92.0302 291.3 93.2802 296.94 94.7302C302.16 96.0502 307.31 97.6402 312.37 99.5202C315.969 100.929 319.398 102.741 322.59 104.92C325.111 106.768 327.123 109.225 328.436 112.062C329.75 114.899 330.322 118.022 330.1 121.14C330.1 129.66 326.97 136.32 320.5 141.31C314.25 146.3 305.9 148.79 294.84 148.79V148.79ZM398.11 142.76C394.096 144.398 389.985 145.787 385.8 146.92C381.254 148.236 376.552 148.936 371.82 149C368.48 149 365.56 148.58 362.64 147.75C359.801 146.926 357.17 145.508 354.92 143.59C352.84 141.93 351.17 139.43 349.92 136.73C348.507 133.377 347.796 129.769 347.83 126.13V81.4302H336.98V61.8802H348.04V34.6502H373.91V61.6802H391.43V81.4302H373.91V117.19C373.91 119.89 374.53 121.97 375.99 123.43C377.583 124.535 379.481 125.115 381.42 125.09C383.5 125.09 385.59 124.88 387.47 124.05C389.346 123.555 391.164 122.857 392.89 121.97L397.89 142.77H398.11V142.76ZM446.92 148.79C440.284 148.907 433.69 147.707 427.52 145.26C422.159 143.15 417.306 139.928 413.28 135.807C409.253 131.686 406.145 126.759 404.16 121.35C400.059 110.495 400.059 98.5159 404.16 87.6602C406.147 82.2535 409.255 77.3286 413.281 73.2093C417.307 69.0901 422.16 65.8698 427.52 63.7602C433.15 61.4602 439.62 60.2202 446.92 60.2202C453.193 59.9224 459.456 60.9744 465.287 63.3051C471.118 65.6358 476.381 69.1909 480.72 73.7302C484.626 77.7151 487.679 82.4551 489.69 87.6602C493.96 98.5602 493.96 110.66 489.69 121.56C487.69 126.904 484.598 131.772 480.61 135.853C476.622 139.934 471.826 143.138 466.53 145.26C460.298 147.733 453.633 148.934 446.93 148.79H446.92ZM428.15 104.71C428.15 111.37 429.82 116.77 433.36 120.72C437.12 124.88 441.71 126.96 447.13 126.96C452.37 127.06 457.37 124.76 460.69 120.72C462.416 118.615 463.756 116.222 464.65 113.65C465.674 110.783 466.169 107.754 466.11 104.71C466.11 97.8502 464.24 92.4502 460.69 88.5002C459.047 86.5043 456.974 84.9062 454.625 83.8255C452.277 82.7449 449.715 82.2097 447.13 82.2602C444.552 82.2539 442.004 82.8089 439.663 83.8864C437.321 84.964 435.242 86.5384 433.57 88.5002C431.777 90.591 430.366 92.9807 429.4 95.5602C428.46 98.5155 428.037 101.611 428.15 104.71V104.71ZM560.2 84.1302C553.94 84.1302 548.1 85.1702 542.88 87.2502C538.296 88.7906 534.389 91.8767 531.83 95.9802V147.34H505.75V61.8802H529.75V78.9302C532.66 73.1102 536.42 68.5302 541.21 65.4202C545.436 62.2441 550.528 60.4303 555.81 60.2202H558.53L560.2 60.4202V84.1302ZM571.67 160.02C575.3 161.278 579.1 161.979 582.94 162.1C586.07 162.1 588.57 161.06 590.44 158.98C592.12 156.9 593.58 152.74 595.04 147.34L562.49 61.8802H589.4L609.22 124.88L626.54 61.8802H650.94L618.19 161.06C615.692 169.193 610.237 176.095 602.901 180.405C595.565 184.714 586.88 186.118 578.56 184.34C576.193 183.907 573.882 183.209 571.67 182.26V160.02V160.02ZM712.69 148.79C706.23 148.79 700.39 147.54 695.59 144.63C690.717 141.967 686.672 138.013 683.9 133.2V147.34H661.17V28.4002H687.45V75.8002C690.259 70.9125 694.343 66.88 699.266 64.134C704.189 61.388 709.766 60.0317 715.4 60.2102C720.83 60.2102 725.84 61.2502 730.42 63.7402C735.02 65.8202 738.77 69.1502 742.32 73.1002C747.379 80.0949 750.699 88.1948 752.003 96.7284C753.307 105.262 752.559 113.984 749.82 122.17C747.851 127.363 744.954 132.154 741.27 136.31C737.642 140.27 733.224 143.425 728.301 145.573C723.379 147.721 718.061 148.814 712.69 148.78V148.79ZM705.39 126.96C709.515 126.975 713.543 125.701 716.909 123.317C720.276 120.932 722.814 117.557 724.17 113.66C725.675 109.539 726.1 105.101 725.406 100.769C724.711 96.4364 722.919 92.3541 720.2 88.9102C718.588 86.7986 716.501 85.0962 714.109 83.9409C711.717 82.7856 709.086 82.2098 706.43 82.2602C702.47 82.2602 698.72 83.7102 695.17 86.4202C691.74 89.3708 689.028 93.0644 687.24 97.2202V115.11C688.896 118.58 691.498 121.513 694.745 123.572C697.993 125.631 701.755 126.732 705.6 126.75L705.4 126.96H705.39ZM765.47 28.4102H791.55V116.77C791.55 123.43 794.26 126.54 799.89 126.54C802.87 126.55 805.81 125.84 808.45 124.46L811.99 143.8C804.683 146.989 796.812 148.686 788.84 148.79C781.33 148.79 775.48 146.71 771.52 142.97C767.35 138.81 765.26 133.4 765.26 125.92V28.4102H765.47V28.4102ZM861.22 148.79C854.584 148.907 847.99 147.707 841.82 145.26C836.427 143.163 831.539 139.948 827.477 135.827C823.415 131.706 820.27 126.773 818.25 121.35C815.289 113.326 814.539 104.653 816.081 96.2404C817.622 87.8274 821.397 79.9835 827.01 73.5302C831.186 69.3416 836.147 66.0181 841.61 63.7502C847.25 61.4702 853.71 60.2202 861.01 60.2202C867.283 59.9224 873.546 60.9744 879.377 63.3051C885.208 65.6358 890.471 69.1909 894.81 73.7302C898.98 77.6802 901.69 82.4702 903.78 87.6602C906.856 95.6662 907.665 104.365 906.12 112.801C904.575 121.237 900.734 129.084 895.02 135.48C890.937 139.781 885.951 143.121 880.42 145.26C874.25 147.707 867.656 148.907 861.02 148.79H861.22ZM842.24 104.71C842.24 111.37 843.91 116.77 847.46 120.72C851.21 124.88 855.8 126.96 861.22 126.96C863.802 126.995 866.36 126.454 868.706 125.374C871.052 124.294 873.127 122.704 874.78 120.72C876.509 118.616 877.853 116.222 878.75 113.65C879.774 110.783 880.269 107.754 880.21 104.71C880.21 97.8502 878.33 92.4502 874.78 88.5002C873.137 86.5043 871.064 84.9062 868.715 83.8255C866.367 82.7449 863.805 82.2097 861.22 82.2602C858.642 82.2539 856.094 82.8089 853.753 83.8864C851.411 84.964 849.332 86.5384 847.66 88.5002C845.867 90.591 844.456 92.9807 843.49 95.5602C842.45 98.4802 842.24 101.39 842.24 104.71V104.71ZM977.63 147.34L955.31 112.82L946.13 122.39V147.34H920.05V28.4002H946.13V97.2202L975.13 61.8702H1002.87L972 98.6802L1005.37 147.34H977.63V147.34Z" fill="white"/>
<path d="M107.77 102.28H64.49V123.16H106.73C109.211 123.111 111.584 122.142 113.39 120.44C115.05 118.77 116.09 116.27 116.09 113.14C116.15 110.45 115.35 107.82 113.8 105.62C112.14 103.53 110.26 102.28 107.77 102.28V102.28ZM109.22 77.0202C111.1 75.7702 111.92 73.0602 111.92 69.5102C111.92 66.3802 111.1 64.0802 109.64 62.6202C108.149 61.2979 106.233 60.5561 104.24 60.5302H64.48V79.3202H103.38C105.47 79.3202 107.55 78.2802 109.21 77.0202H109.22Z" fill="#09B3AF"/>
<path d="M172.68 0.000198831H9.36C6.90377 -0.015852 4.54092 0.940461 2.78729 2.66037C1.03365 4.38029 0.0316416 6.72412 0 9.1802V173.25C0 178.26 4.16 181.39 9.15 181.39H33.3V214.17L63.26 181.6H172.69C177.69 181.6 180.8 178.47 180.8 173.25V9.4002C180.8 4.4002 177.68 0.220199 172.48 0.220199L172.68 0.0101988V0.000198831ZM145.22 132.97C143.078 136.751 139.995 139.913 136.27 142.15C132.32 144.65 127.95 146.95 122.96 148C117.96 149.25 112.56 150.3 106.94 150.3H33.29V33.4002H116.92C121.08 33.4002 124.62 34.2302 127.95 36.1102C131.117 37.797 133.939 40.0629 136.27 42.7902C140.932 48.5003 143.435 55.6693 143.34 63.0402C143.34 68.4702 141.89 73.6802 139.18 78.6902C136.38 83.7302 131.98 87.6902 126.7 89.9702C133.36 91.8402 138.56 95.1802 142.51 99.9902C146.26 104.99 148.13 111.47 148.13 119.61C148.13 124.83 147.09 129.21 145.01 132.97H145.21H145.22Z" fill="#09B3AF"/>
</svg>

<svg width="1002" height="351" xmlns="http://www.w3.org/2000/svg">
  <g transform="translate(1 74)" fill-rule="nonzero" fill="none">
    <path d="M294.84 148.79c-7.3 0-14.39-1.04-21.48-3.33a49.06 49.06 0 0 1-17.94-10.4l9.38-15.8a85.34 85.34 0 0 0 15.23 8.32c4.8 2.08 9.6 2.91 14.19 2.91 3.34 0 6.05-.62 7.93-1.87 1.87-1.04 2.7-2.9 2.7-5.2 0-2.07-1.03-4.15-3.54-5.4a54.36 54.36 0 0 0-12.3-4.16l-14.6-4.78c-3.97-1.66-7.1-3.33-9.6-5.2a15.33 15.33 0 0 1-5.43-6.24 20.32 20.32 0 0 1-1.67-8.31 27 27 0 0 1 9.8-21.21c2.93-2.5 6.68-4.37 10.85-5.82a41.18 41.18 0 0 1 13.56-2.08c6.47 0 12.52.83 18.15 2.5a47.12 47.12 0 0 1 16.28 9.56l-10.23 15.6a69.53 69.53 0 0 0-12.93-7.28 28 28 0 0 0-11.27-2.3c-2.7 0-5.21.42-7.09 1.67-2.08 1.04-2.92 2.91-2.92 5.4a5.8 5.8 0 0 0 3.13 5.41c2.09 1.25 6.26 2.5 11.9 3.95 5.22 1.32 10.37 2.91 15.43 4.79a51.3 51.3 0 0 1 10.22 5.4 18.48 18.48 0 0 1 7.51 16.22c0 8.52-3.13 15.18-9.6 20.17-6.25 4.99-14.6 7.48-25.66 7.48zm103.27-6.03a105.78 105.78 0 0 1-12.31 4.16 52.87 52.87 0 0 1-13.98 2.08c-3.34 0-6.26-.42-9.18-1.25a20.88 20.88 0 0 1-7.72-4.16c-2.08-1.66-3.75-4.16-5-6.86a26.66 26.66 0 0 1-2.09-10.6v-44.7h-10.85V61.88h11.06V34.65h25.87v27.03h17.52v19.75h-17.52v35.76c0 2.7.62 4.78 2.08 6.24a9.32 9.32 0 0 0 5.43 1.66c2.08 0 4.17-.21 6.05-1.04a26.86 26.86 0 0 0 5.42-2.08l5 20.8h.22zm48.81 6.03a50.22 50.22 0 0 1-19.4-3.53 40.81 40.81 0 0 1-23.36-23.91 47.67 47.67 0 0 1 0-33.69 40.81 40.81 0 0 1 23.36-23.9c5.63-2.3 12.1-3.54 19.4-3.54a43.88 43.88 0 0 1 33.8 13.51 41.02 41.02 0 0 1 8.97 13.93c4.27 10.9 4.27 23 0 33.9a41.02 41.02 0 0 1-23.16 23.7 50.22 50.22 0 0 1-19.6 3.53zm-18.77-44.08c0 6.66 1.67 12.06 5.21 16.01 3.76 4.16 8.35 6.24 13.77 6.24 5.24.1 10.24-2.2 13.56-6.24a23.13 23.13 0 0 0 3.96-7.07 25.14 25.14 0 0 0 1.46-8.94c0-6.86-1.87-12.26-5.42-16.21a17.13 17.13 0 0 0-13.56-6.24 17.76 17.76 0 0 0-13.56 6.24 23.5 23.5 0 0 0-4.17 7.06 26.94 26.94 0 0 0-1.25 9.15zM560.2 84.13c-6.26 0-12.1 1.04-17.32 3.12a20.85 20.85 0 0 0-11.05 8.73v51.36h-26.08V61.88h24v17.05c2.91-5.82 6.67-10.4 11.46-13.51a26.02 26.02 0 0 1 14.6-5.2h2.72l1.67.2v23.71zm11.47 75.89a38.08 38.08 0 0 0 11.27 2.08c3.13 0 5.63-1.04 7.5-3.12 1.68-2.08 3.14-6.24 4.6-11.64l-32.55-85.46h26.91l19.82 63 17.32-63h24.4l-32.75 99.18a34.02 34.02 0 0 1-39.63 23.28 32.16 32.16 0 0 1-6.89-2.08v-22.24zm141.02-11.23c-6.46 0-12.3-1.25-17.1-4.16a30.2 30.2 0 0 1-11.69-11.43v14.14h-22.73V28.4h26.28v47.4a31.1 31.1 0 0 1 27.95-15.59c5.43 0 10.44 1.04 15.02 3.53 4.6 2.08 8.35 5.41 11.9 9.36a54.32 54.32 0 0 1 7.5 49.07 45.8 45.8 0 0 1-8.55 14.14 38.44 38.44 0 0 1-28.58 12.47zm-7.3-21.83a19.81 19.81 0 0 0 18.78-13.3 25.71 25.71 0 0 0-3.97-24.75 16.92 16.92 0 0 0-13.77-6.65c-3.96 0-7.71 1.45-11.26 4.16a29.77 29.77 0 0 0-7.93 10.8v17.89a20.45 20.45 0 0 0 18.36 11.64l-.2.21zm60.08-98.55h26.08v88.36c0 6.66 2.71 9.77 8.34 9.77 2.98.01 5.92-.7 8.56-2.08l3.54 19.34a59.83 59.83 0 0 1-23.15 4.99c-7.51 0-13.36-2.08-17.32-5.82-4.17-4.16-6.26-9.57-6.26-17.05V28.41h.21zm95.75 120.38a50.22 50.22 0 0 1-19.4-3.53 41.02 41.02 0 0 1-23.57-23.91 47.7 47.7 0 0 1 8.76-47.82 44.96 44.96 0 0 1 14.6-9.78c5.64-2.28 12.1-3.53 19.4-3.53a43.88 43.88 0 0 1 33.8 13.51c4.17 3.95 6.88 8.74 8.97 13.93a46.66 46.66 0 0 1-8.76 47.82 40.06 40.06 0 0 1-14.6 9.78 50.22 50.22 0 0 1-19.4 3.53h.2zm-18.98-44.08c0 6.66 1.67 12.06 5.22 16.01 3.75 4.16 8.34 6.24 13.76 6.24a17.34 17.34 0 0 0 13.56-6.24 23.13 23.13 0 0 0 3.97-7.07 25.14 25.14 0 0 0 1.46-8.94c0-6.86-1.88-12.26-5.43-16.21a17.13 17.13 0 0 0-13.56-6.24 17.76 17.76 0 0 0-13.56 6.24 23.5 23.5 0 0 0-4.17 7.06c-1.04 2.92-1.25 5.83-1.25 9.15zm135.39 42.63l-22.32-34.52-9.18 9.57v24.95h-26.08V28.4h26.08v68.82l29-35.35h27.74L972 98.68l33.37 48.66h-27.74z" fill="#fff"/>
    <g fill="#09B3AF">
      <path d="M107.77 102.28H64.49v20.88h42.24a10 10 0 0 0 6.66-2.72c1.66-1.67 2.7-4.17 2.7-7.3.06-2.69-.74-5.32-2.29-7.52-1.66-2.09-3.54-3.34-6.03-3.34zm1.45-25.26c1.88-1.25 2.7-3.96 2.7-7.51 0-3.13-.82-5.43-2.28-6.89a8.3 8.3 0 0 0-5.4-2.09H64.48v18.79h38.9c2.09 0 4.17-1.04 5.83-2.3z"/>
      <path d="M172.68 0H9.36A9.3 9.3 0 0 0 0 9.18v164.07c0 5.01 4.16 8.14 9.15 8.14H33.3v32.78l29.96-32.57h109.43c5 0 8.11-3.13 8.11-8.35V9.4c0-5-3.12-9.18-8.32-9.18l.2-.21zm-27.46 132.97a25.19 25.19 0 0 1-8.95 9.18c-3.95 2.5-8.32 4.8-13.31 5.85-5 1.25-10.4 2.3-16.02 2.3H33.29V33.4h83.63c4.16 0 7.7.83 11.03 2.71a28.69 28.69 0 0 1 8.32 6.68 31.38 31.38 0 0 1 7.07 20.25c0 5.43-1.45 10.64-4.16 15.65-2.8 5.04-7.2 9-12.48 11.28 6.66 1.87 11.86 5.21 15.81 10.02 3.75 5 5.62 11.48 5.62 19.62 0 5.22-1.04 9.6-3.12 13.36h.2z"/>
    </g>
  </g>
</svg>
